contributed-vectors/stoned_penguin.svg

<svg width="192" height="192" viewBox="0 0 192 192" fill="none" xmlns="http://www.w3.org/2000/svg">
<path d="M174 32.5H18C12.4772 32.5 8 36.9772 8 42.5V149.5C8 155.023 12.4772 159.5 18 159.5H174C179.523 159.5 184 155.023 184 149.5V42.5C184 36.9772 179.523 32.5 174 32.5Z" fill="#272727" stroke="#272727"/>
<path d="M12 43V150C12 152.761 14.2386 155 17 155H174C176.761 155 179 152.761 179 150V44.1133C179 41.357 176.769 39.1205 174.013 39.1133L136.013 39.0132C133.247 39.0059 131 41.2466 131 44.0132V51C131 53.7614 128.761 56 126 56H65C62.2386 56 60 53.7614 60 51V43C60 40.2386 57.7614 38 55 38H17C14.2386 38 12 40.2386 12 43Z" fill="#E5E6EF"/>
<rect x="64" y="45" width="62" height="4" rx="2" fill="black"/>
<rect x="26" y="45" width="23" height="5" fill="#959595"/>
<rect x="141" y="45" width="24" height="5" fill="#959595"/>
</svg>

<svg xmlns="http://www.w3.org/2000/svg" width="192" height="192" fill="none"><path fill="#272727" stroke="#272727" d="M174 32.5H18c-5.523 0-10 4.477-10 10v107c0 5.523 4.477 10 10 10h156c5.523 0 10-4.477 10-10v-107c0-5.523-4.477-10-10-10Z"/><path fill="#E5E6EF" d="M12 43v107a5 5 0 0 0 5 5h157a5 5 0 0 0 5-5V44.113a5 5 0 0 0-4.987-5l-38-.1a5 5 0 0 0-5.013 5V51a5 5 0 0 1-5 5H65a5 5 0 0 1-5-5v-8a5 5 0 0 0-5-5H17a5 5 0 0 0-5 5Z"/><rect width="62" height="4" x="64" y="45" fill="#000" rx="2"/><path fill="#959595" d="M26 45h23v5H26zM141 45h24v5h-24z"/></svg>
